src/topics/icons/paypal.svg

<svg height="302" preserveAspectRatio="xMidYMid" viewBox="0 0 256 302" width="256" xmlns="http://www.w3.org/2000/svg"><path d="m217.168476 23.5070146c-13.934399-15.88221809-39.122864-22.69126126-71.345121-22.69126126h-93.5202931c-6.5926188 0-12.19468 4.79463186-13.2268577 11.29568656l-38.9397359 246.9651611c-.77413327 4.869548 2.99664492 9.281275 7.93278501 9.281275h57.73535869l14.5004318-91.972027-.4494967 2.880109c1.0321777-6.501055 6.5926188-11.295686 13.1769136-11.295686h27.4359493c53.897988 0 96.100737-21.892156 108.428602-85.2212523.366256-1.872903.682569-3.695862.957261-5.4772009-1.55659-.8240774-1.55659-.8240774 0 0 3.67089-23.4071264-.024972-39.3392886-12.685797-53.7648042" fill="#27346a"/><path d="m102.396976 68.8395929c1.539943-.7325132 3.254689-1.1403899 5.052676-1.1403899h73.317913c8.681946 0 16.781211.566033 24.181259 1.7563669 2.122624.3412846 4.178655.7325132 6.176418 1.18201 1.997764.4411727 3.937259.9406135 5.818486 1.4899984.940613.2746925 1.864579.5577089 2.771896.8573734 3.637594 1.215306 7.025468 2.6303883 10.138649 4.2868671 3.67089-23.4154505-.024972-39.3392886-12.685797-53.7648042-13.942723-15.88221809-39.122864-22.69126126-71.345121-22.69126126h-93.5286171c-6.5842948 0-12.186356 4.79463186-13.2185337 11.29568656l-38.9397359 246.9568371c-.77413327 4.877872 2.99664492 9.281275 7.924461 9.281275h57.7436827l30.0829854-190.7697447c.615977-3.9122865 3.1298291-7.1170317 6.5093786-8.7402144z" fill="#27346a"/><path d="m228.897012 82.7490197c-12.327865 63.3207723-54.530614 85.2212523-108.428602 85.2212523h-27.4442733c-6.5842948 0-12.144736 4.794631-13.1685896 11.295686l-18.0381376 114.3553c-.6742451 4.261895 2.6220643 8.124237 6.9339034 8.124237h48.6705081c5.760217 0 10.663061-4.195303 11.562055-9.880604l.474468-2.480556 9.173063-58.134912.591005-3.213069c.898994-5.685301 5.801838-9.880604 11.562055-9.880604h7.283512c47.147214 0 84.064214-19.153556 94.852136-74.549866 4.503291-23.149082 2.172568-42.477442-9.739096-56.0539084-3.612622-4.1120627-8.099265-7.5082603-13.326746-10.2801568-.283016 1.7896629-.591005 3.6042979-.957261 5.4772009z" fill="#2790c3"/><path d="m216.952052 72.1275783c-1.881227-.5493849-3.820722-1.0488257-5.818486-1.4899984-1.997763-.4411728-4.062118-.8324014-6.176418-1.173686-7.408372-1.1986579-15.499313-1.7646909-24.189583-1.7646909h-73.309589c-1.806311 0-3.521057.4078767-5.052676 1.1487139-3.3878735 1.6231827-5.8934016 4.8196039-6.5093786 8.7402144l-15.5825536 98.7977177-.4494967 2.880109c1.0238537-6.501055 6.5842948-11.295686 13.1685896-11.295686h27.4442733c53.897988 0 96.100737-21.892156 108.428602-85.2212523.366256-1.872903.674245-3.687538.957261-5.4772009-3.121505-1.6481548-6.501055-3.0715611-10.138649-4.2785431-.907317-.2996645-1.831283-.5910049-2.771896-.8656974" fill="#1f264f"/></svg>

<?xml version="1.0" encoding="UTF-8" standalone="no"?>
<svg width="256px" height="302px" viewBox="0 0 256 302" version="1.1" xmlns="http://www.w3.org/2000/svg" xmlns:xlink="http://www.w3.org/1999/xlink" preserveAspectRatio="xMidYMid">
	<g>
		<path d="M217.168476,23.5070146 C203.234077,7.62479651 178.045612,0.815753338 145.823355,0.815753338 L52.3030619,0.815753338 C45.7104431,0.815753338 40.1083819,5.6103852 39.0762042,12.1114399 L0.136468302,259.076601 C-0.637664968,263.946149 3.13311322,268.357876 8.06925331,268.357876 L65.804612,268.357876 L80.3050438,176.385849 L79.8555471,179.265958 C80.8877248,172.764903 86.4481659,167.970272 93.0324607,167.970272 L120.46841,167.970272 C174.366398,167.970272 216.569147,146.078116 228.897012,82.7490197 C229.263268,80.8761167 229.579581,79.0531577 229.854273,77.2718188 C228.297683,76.4477414 228.297683,76.4477414 229.854273,77.2718188 C233.525163,53.8646924 229.829301,37.9325302 217.168476,23.5070146" fill="#27346A"></path>
		<path d="M102.396976,68.8395929 C103.936919,68.1070797 105.651665,67.699203 107.449652,67.699203 L180.767565,67.699203 C189.449511,67.699203 197.548776,68.265236 204.948824,69.4555699 C207.071448,69.7968545 209.127479,70.1880831 211.125242,70.6375799 C213.123006,71.0787526 215.062501,71.5781934 216.943728,72.1275783 C217.884341,72.4022708 218.808307,72.6852872 219.715624,72.9849517 C223.353218,74.2002577 226.741092,75.61534 229.854273,77.2718188 C233.525163,53.8563683 229.829301,37.9325302 217.168476,23.5070146 C203.225753,7.62479651 178.045612,0.815753338 145.823355,0.815753338 L52.2947379,0.815753338 C45.7104431,0.815753338 40.1083819,5.6103852 39.0762042,12.1114399 L0.136468302,259.068277 C-0.637664968,263.946149 3.13311322,268.349552 8.0609293,268.349552 L65.804612,268.349552 L95.8875974,77.5798073 C96.5035744,73.6675208 99.0174265,70.4627756 102.396976,68.8395929 Z" fill="#27346A"></path>
		<path d="M228.897012,82.7490197 C216.569147,146.069792 174.366398,167.970272 120.46841,167.970272 L93.0241367,167.970272 C86.4398419,167.970272 80.8794007,172.764903 79.8555471,179.265958 L61.8174095,293.621258 C61.1431644,297.883153 64.4394738,301.745495 68.7513129,301.745495 L117.421821,301.745495 C123.182038,301.745495 128.084882,297.550192 128.983876,291.864891 L129.458344,289.384335 L138.631407,231.249423 L139.222412,228.036354 C140.121406,222.351053 145.02425,218.15575 150.784467,218.15575 L158.067979,218.15575 C205.215193,218.15575 242.132193,199.002194 252.920115,143.605884 C257.423406,120.456802 255.092683,101.128442 243.181019,87.5519756 C239.568397,83.4399129 235.081754,80.0437153 229.854273,77.2718188 C229.571257,79.0614817 229.263268,80.8761167 228.897012,82.7490197 L228.897012,82.7490197 Z" fill="#2790C3"></path>
		<path d="M216.952052,72.1275783 C215.070825,71.5781934 213.13133,71.0787526 211.133566,70.6375799 C209.135803,70.1964071 207.071448,69.8051785 204.957148,69.4638939 C197.548776,68.265236 189.457835,67.699203 180.767565,67.699203 L107.457976,67.699203 C105.651665,67.699203 103.936919,68.1070797 102.4053,68.8479169 C99.0174265,70.4710996 96.5118984,73.6675208 95.8959214,77.5881313 L80.3133678,176.385849 L79.8638711,179.265958 C80.8877248,172.764903 86.4481659,167.970272 93.0324607,167.970272 L120.476734,167.970272 C174.374722,167.970272 216.577471,146.078116 228.905336,82.7490197 C229.271592,80.8761167 229.579581,79.0614817 229.862597,77.2718188 C226.741092,75.623664 223.361542,74.2002577 219.723948,72.9932757 C218.816631,72.6936112 217.892665,72.4022708 216.952052,72.1275783" fill="#1F264F"></path>
	</g>
</svg>
